app/dist/common/images/pra-group.svg

<svg height="18" width="18" xmlns="http://www.w3.org/2000/svg"><path d="m0 0h18v18h-18z" fill="#093254"/><path d="m11 7v-3h-5v5h2v-2z" fill="#00bdf2"/><path d="m8 9h-2v5h5v-3h-3z" fill="#e0e666"/><path d="m10 11h3v-4h-3z" fill="#a8d26d"/><path d="m11 7h-3v2h3z" fill="#76c370"/><path d="m8 11h3v-2h-3z" fill="#a1cd47"/></svg>

<!-- by TradingView --><svg width="18" height="18" xmlns="http://www.w3.org/2000/svg"><path fill="#093254" d="M0 0h18v18H0z"/><path d="M11 7V4H6v5h2V7h3z" fill="#00BDF2"/><path d="M8 9H6v5h5v-3H8V9z" fill="#E0E666"/><path d="M10 11h3V7h-3v4z" fill="#A8D26D"/><path d="M11 7H8v2h3V7z" fill="#76C370"/><path d="M8 11h3V9H8v2z" fill="#A1CD47"/></svg>
